img/phone.svg

<svg width="22" height="22" fill="none" xmlns="http://www.w3.org/2000/svg"><path d="M20.97 17.33c0 .36-.08.73-.25 1.09-.17.36-.39.7-.68 1.02-.49.54-1.03.93-1.64 1.18-.6.25-1.25.38-1.95.38-1.02 0-2.11-.24-3.26-.73s-2.3-1.15-3.44-1.98a28.75 28.75 0 0 1-3.28-2.8 28.414 28.414 0 0 1-2.79-3.27c-.82-1.14-1.48-2.28-1.96-3.41C1.24 7.67 1 6.58 1 5.54c0-.68.12-1.33.36-1.93.24-.61.62-1.17 1.15-1.67C3.15 1.31 3.85 1 4.59 1c.28 0 .56.06.81.18.26.12.49.3.67.56l2.32 3.27c.18.25.31.48.4.7.09.21.14.42.14.61 0 .24-.07.48-.21.71-.13.23-.32.47-.56.71l-.76.79c-.11.11-.16.24-.16.4 0 .08.01.15.03.23.03.08.06.14.08.2.18.33.49.76.93 1.28.45.52.93 1.05 1.45 1.58.54.53 1.06 1.02 1.59 1.47.52.44.95.74 1.29.92.05.02.11.05.18.08.08.03.16.04.25.04.17 0 .3-.06.41-.17l.76-.75c.25-.25.49-.44.72-.56.23-.14.46-.21.71-.21.19 0 .39.04.61.13.22.09.45.22.7.39l3.31 2.35c.26.18.44.39.55.64.1.25.16.5.16.78Z" stroke="#111" stroke-width="1.5" stroke-miterlimit="10"/></svg>

<svg width="22" height="22" viewBox="0 0 22 22" fill="none" xmlns="http://www.w3.org/2000/svg">
<path d="M20.97 17.33C20.97 17.69 20.89 18.06 20.72 18.42C20.55 18.78 20.33 19.12 20.04 19.44C19.55 19.98 19.01 20.37 18.4 20.62C17.8 20.87 17.15 21 16.45 21C15.43 21 14.34 20.76 13.19 20.27C12.04 19.78 10.89 19.12 9.75 18.29C8.6 17.45 7.51 16.52 6.47 15.49C5.44 14.45 4.51 13.36 3.68 12.22C2.86 11.08 2.2 9.94 1.72 8.81C1.24 7.67 1 6.58 1 5.54C1 4.86 1.12 4.21 1.36 3.61C1.6 3 1.98 2.44 2.51 1.94C3.15 1.31 3.85 1 4.59 1C4.87 1 5.15 1.06 5.4 1.18C5.66 1.3 5.89 1.48 6.07 1.74L8.39 5.01C8.57 5.26 8.7 5.49 8.79 5.71C8.88 5.92 8.93 6.13 8.93 6.32C8.93 6.56 8.86 6.8 8.72 7.03C8.59 7.26 8.4 7.5 8.16 7.74L7.4 8.53C7.29 8.64 7.24 8.77 7.24 8.93C7.24 9.01 7.25 9.08 7.27 9.16C7.3 9.24 7.33 9.3 7.35 9.36C7.53 9.69 7.84 10.12 8.28 10.64C8.73 11.16 9.21 11.69 9.73 12.22C10.27 12.75 10.79 13.24 11.32 13.69C11.84 14.13 12.27 14.43 12.61 14.61C12.66 14.63 12.72 14.66 12.79 14.69C12.87 14.72 12.95 14.73 13.04 14.73C13.21 14.73 13.34 14.67 13.45 14.56L14.21 13.81C14.46 13.56 14.7 13.37 14.93 13.25C15.16 13.11 15.39 13.04 15.64 13.04C15.83 13.04 16.03 13.08 16.25 13.17C16.47 13.26 16.7 13.39 16.95 13.56L20.26 15.91C20.52 16.09 20.7 16.3 20.81 16.55C20.91 16.8 20.97 17.05 20.97 17.33Z" stroke="#111111" stroke-width="1.5" stroke-miterlimit="10"/>
</svg>
